X: 33859
T: Reculver, The
R: polka
M: 2/4
K: Edorian
E/F/|:GE EE/F/|GE EE/F/|GB AG|FD DE/F/|
GE EE/F/|GE EE/F/|GE dF|1 E2 EE/F/:|2 E2 E2||
|:ee dd|BB A2|GA/G/ FE|DF A2|
ee dd|BB A2|GA/G/ FD|1 E2 E2:|2 E2 EE/F/||

